X:3479
T:Cottage Dance. GS.017
T:Kitty O'Lynn,aka. GS.017
M:6/8
L:1/8
Q:120
S:George Spencer m/s, Leeds,1831
R:Jig
O:England
A:Leeds
N:This tune also occurs as  tune No. 45, page 34.  The two are identical
N:except for the marked note )E in Mo. 45), and number 45 has repeats
H:1831
H:1831
H:183
Z:vmp.Cherri Graebe
K:C major
e/2d/2 | BGG GEG | AFA G2 e/2d/2 | BGG GEG | f3 fed | BGG GEG
|! Acf a
3 | gag gfe | d3 c3 ||
efg a2g | efg a2 g | !g2eg2e | ded fed | efg a2 g | efg a2 g | g2eg2e |
d
cd  c2 ||


